X:1
T: Captain Kennedy's
C:
R:Reel
Q: 232
K:F
M:4/4
L:1/8
|:A|FG AB c2 F2|d2 F2 c2 F2|f2 d2 c2 A2|B2 G2 G2 A2|
FG AB c2 F2|d2 F2 c2 F2|B2 G2 AB cB|A2 F2 F3:|
|:A|FG AB c2 f2|d2 f2 A2 f2|B2 f2 A2 f2|g2 G2 G2 A2|
FG AB c2 f2|d2 f2 c2 A2|B2 G2 c2 B2|A2 F2 F3:|
